X: 37
T:Callan Lasses, The
R:reel
M:4/4
L:1/8
K:D
ADDD ADFD|ADFA BcdB|ADDD ADFA|GEEE GABd|
ADDD ADFD|ADFA BcdB|ADDD ADFA|1GEEE GABd:|2GEEE GABc ||
|:d2 fd AdFA|d2 fd cdec|d2 fd BdAF|GEEE GABc|
d2 fd AdFA|d2 fd cdeg|fdec dBAF|1GEEE GABc:|2GEEE GABd||

